public/icons/eraser-icon.svg

<svg width="123" height="104" viewBox="0 0 123 104" fill="none" xmlns="http://www.w3.org/2000/svg">
<path fill-rule="evenodd" clip-rule="evenodd" d="M27.66 93.5297H60.15L69.25 84.4497C70.65 83.0497 70.66 80.7497 69.26 79.3497L42.24 52.2497C40.84 50.8497 38.54 50.8397 37.14 52.2397L14.3 75.0297C12.89 76.4297 12.89 78.7297 14.29 80.1297L27.66 93.5297ZM71.03 93.5297H122.87V103.38H61.16H50.28H37.48H25.7H25.35L1.04997 79.0097C-0.350026 77.6097 -0.350026 75.3097 1.05997 73.9097L74.11 1.04973C75.52 -0.35027 77.81 -0.35027 79.21 1.05973L118.83 40.7797C120.23 42.1797 120.23 44.4797 118.82 45.8797L71.03 93.5297Z" fill="#6D7887"/>
</svg>

<?xml version="1.0" encoding="utf-8"?><svg version="1.1" id="Layer_1" xmlns="http://www.w3.org/2000/svg" xmlns:xlink="http://www.w3.org/1999/xlink" x="0px" y="0px" viewBox="0 0 122.88 103.38" style="enable-background:new 0 0 122.88 103.38" xml:space="preserve"><style type="text/css">.st0{fill-rule:evenodd;clip-rule:evenodd;}</style><g><path class="st0" d="M27.66,93.53h32.49l9.1-9.08c1.4-1.4,1.41-3.7,0.01-5.1l-27.02-27.1c-1.4-1.4-3.7-1.41-5.1-0.01L14.3,75.03 c-1.41,1.4-1.41,3.7-0.01,5.1L27.66,93.53L27.66,93.53z M71.03,93.53h51.84v9.85H61.16H50.28h-12.8H25.7h-0.35L1.05,79.01 c-1.4-1.4-1.4-3.7,0.01-5.1L74.11,1.05c1.41-1.4,3.7-1.4,5.1,0.01l39.62,39.72c1.4,1.4,1.4,3.7-0.01,5.1L71.03,93.53L71.03,93.53z"/></g></svg>
